images/logo.svg

<svg width="162" height="28" viewBox="0 0 162 28" fill="none" xmlns="http://www.w3.org/2000/svg">
<path d="M7.28 1.75H0V21.49H7.28C12.544 21.49 18.032 20.118 18.032 11.606C18.032 3.122 12.544 1.75 7.28 1.75ZM7.28 17.57H4.48V5.67H7.28C10.78 5.67 13.552 5.95 13.552 11.606C13.552 17.29 10.78 17.57 7.28 17.57Z" fill="white"/>
<path d="M19.4283 14.238C19.4283 18.242 21.9203 21.77 27.3523 21.77C32.2523 21.77 34.5763 18.55 34.8563 16.506H30.3763C30.0963 17.57 28.9203 18.13 27.3523 18.13C24.8043 18.13 23.6283 16.982 23.6283 15.358H34.3523V13.958C34.3523 9.674 31.2723 7.07 26.8763 7.07C22.4803 7.07 19.4283 9.758 19.4283 14.238ZM23.6283 12.838C23.6283 11.774 24.3843 10.71 26.8763 10.71C29.3683 10.71 30.1523 11.774 30.1523 12.838H23.6283Z" fill="white"/>
<path d="M49.9927 17.598C49.9927 14.658 47.4727 13.958 44.7287 13.062C42.4887 12.334 41.0887 11.914 41.0887 11.242C41.0887 10.682 41.6767 10.43 42.7407 10.43C44.2807 10.43 45.0367 11.186 45.0367 12.194H49.5167C49.5167 9.45 47.5567 7.07 42.7687 7.07C38.8767 7.07 36.6087 8.526 36.6087 11.046C36.6087 14.21 39.8287 14.91 42.4607 15.778C44.7287 16.534 45.5127 16.73 45.5127 17.458C45.5127 18.13 44.7567 18.41 43.5527 18.41C41.2007 18.41 40.4447 17.458 40.4447 16.366H35.9647C35.9647 19.67 38.2047 21.77 43.4127 21.77C48.2847 21.77 49.9927 19.978 49.9927 17.598Z" fill="white"/>
<path d="M57.4626 5.95C59.1146 5.95 60.1506 5.166 60.1506 3.71C60.1506 2.282 59.1146 1.47 57.4626 1.47C55.8106 1.47 54.8306 2.282 54.8306 3.71C54.8306 5.166 55.8106 5.95 57.4626 5.95ZM51.6666 21.49H63.9866V17.57H59.9826V9.422C59.9826 7.854 59.1146 6.986 57.5466 7.07L52.2266 7.35V11.27L55.6706 11.102V17.57H51.6666V21.49Z" fill="white"/>
<path d="M80.5604 7.35C79.3004 7.35 77.8444 7.49 77.0044 8.582C75.5204 7.49 73.5604 7.07 71.4044 7.07C66.9524 7.07 63.4244 8.862 63.4244 12.586C63.4244 17.234 68.8844 17.99 74.0644 16.142V17.262C71.4884 17.878 68.5764 18.214 65.3564 18.55L65.8324 21.07C70.1724 20.342 75.2404 19.418 75.2404 21.49C75.2404 23.03 73.5044 23.17 64.3484 23.17V27.09C74.8484 27.09 79.7484 26.614 79.7484 22.442C79.7484 19.446 76.7524 18.606 73.5324 18.802C77.4244 17.486 79.9164 15.806 79.9164 13.146C79.9164 12.39 79.6924 11.746 79.5244 11.522C79.9164 11.27 80.4204 11.27 80.8404 11.27H81.7924V7.35H80.5604ZM71.6844 14.742C68.9964 14.742 67.9044 14.07 67.9044 12.866C67.9044 11.69 68.9964 10.99 71.6844 10.99C74.3724 10.99 75.4364 11.69 75.4364 12.866C75.4364 14.07 74.3724 14.742 71.6844 14.742Z" fill="white"/>
<path d="M92.2659 10.99C94.4219 10.99 95.1779 11.97 95.1779 14.546V21.49H99.6579V13.846C99.6579 9.478 97.4739 7.07 93.8619 7.07C90.8379 7.07 89.0739 9.058 88.5139 11.578H87.3939L88.2339 9.058V7.35H83.7539V21.49H88.2339V16.254C88.2339 12.278 89.8299 10.99 92.2659 10.99Z" fill="white"/>
<path d="M112.986 21.77L124.662 21.49V17.57L115.058 17.85V1.75H110.578V19.418C110.578 20.958 111.446 21.798 112.986 21.77Z" fill="white"/>
<path d="M126.342 17.626C126.342 19.082 127.098 21.77 131.494 21.77C135.442 21.77 136.814 19.782 137.346 17.43H138.466L137.766 19.11V19.39C137.766 20.734 138.522 21.49 139.866 21.49H142.974V17.57H140.93V13.594C140.93 8.946 137.514 7.07 133.622 7.07C129.674 7.07 126.622 9.17 126.622 12.754H130.822C130.822 11.466 131.83 10.71 133.622 10.71C135.554 10.71 136.45 11.41 136.45 12.558L131.998 13.174C127.798 13.762 126.342 15.19 126.342 17.626ZM130.822 16.786C130.822 15.974 131.494 15.778 132.838 15.582L136.45 15.078C136.45 16.814 134.826 17.85 132.362 17.85C131.606 17.85 130.822 17.598 130.822 16.786Z" fill="white"/>
<path d="M144.648 21.49H149.128V20.622L148.288 18.102H149.408C150.136 19.978 151.48 21.77 154.98 21.77C159.068 21.77 161.112 18.41 161.112 14.406C161.112 10.402 159.068 7.07 154.98 7.07C151.48 7.07 150.136 8.862 149.408 10.738H148.288L149.128 8.218V0.91H144.648V21.49ZM149.128 14.406C149.128 12.026 150.472 10.99 152.88 10.99C155.288 10.99 156.632 12.026 156.632 14.406C156.632 16.786 155.288 17.85 152.88 17.85C150.472 17.85 149.128 16.786 149.128 14.406Z" fill="white"/>
</svg>

<svg width="162" height="28" fill="none" xmlns="http://www.w3.org/2000/svg"><path d="M7.28 1.75H0v19.74h7.28c5.264 0 10.752-1.372 10.752-9.884 0-8.484-5.488-9.856-10.752-9.856zm0 15.82h-2.8V5.67h2.8c3.5 0 6.272.28 6.272 5.936 0 5.684-2.772 5.964-6.272 5.964zm12.148-3.332c0 4.004 2.492 7.532 7.924 7.532 4.9 0 7.224-3.22 7.504-5.264h-4.48c-.28 1.064-1.456 1.624-3.024 1.624-2.548 0-3.724-1.148-3.724-2.772h10.724v-1.4c0-4.284-3.08-6.888-7.476-6.888s-7.448 2.688-7.448 7.168zm4.2-1.4c0-1.064.756-2.128 3.248-2.128s3.276 1.064 3.276 2.128h-6.524zm26.365 4.76c0-2.94-2.52-3.64-5.264-4.536-2.24-.728-3.64-1.148-3.64-1.82 0-.56.588-.812 1.652-.812 1.54 0 2.296.756 2.296 1.764h4.48c0-2.744-1.96-5.124-6.748-5.124-3.892 0-6.16 1.456-6.16 3.976 0 3.164 3.22 3.864 5.852 4.732 2.268.756 3.052.952 3.052 1.68 0 .672-.756.952-1.96.952-2.352 0-3.108-.952-3.108-2.044h-4.48c0 3.304 2.24 5.404 7.448 5.404 4.872 0 6.58-1.792 6.58-4.172zm7.47-11.648c1.652 0 2.688-.784 2.688-2.24 0-1.428-1.036-2.24-2.688-2.24-1.652 0-2.632.812-2.632 2.24 0 1.456.98 2.24 2.632 2.24zm-5.796 15.54h12.32v-3.92h-4.004V9.422c0-1.568-.868-2.436-2.436-2.352l-5.32.28v3.92l3.444-.168v6.468h-4.004v3.92z" fill="#fff"/><path d="M80.56 7.35c-1.26 0-2.716.14-3.556 1.232-1.484-1.092-3.444-1.512-5.6-1.512-4.452 0-7.98 1.792-7.98 5.516 0 4.648 5.46 5.404 10.64 3.556v1.12c-2.576.616-5.488.952-8.708 1.288l.476 2.52c4.34-.728 9.408-1.652 9.408.42 0 1.54-1.736 1.68-10.892 1.68v3.92c10.5 0 15.4-.476 15.4-4.648 0-2.996-2.996-3.836-6.216-3.64 3.892-1.316 6.384-2.996 6.384-5.656 0-.756-.224-1.4-.392-1.624.392-.252.896-.252 1.316-.252h.952V7.35H80.56zm-8.876 7.392c-2.688 0-3.78-.672-3.78-1.876 0-1.176 1.092-1.876 3.78-1.876 2.688 0 3.752.7 3.752 1.876 0 1.204-1.064 1.876-3.752 1.876zm20.582-3.752c2.156 0 2.912.98 2.912 3.556v6.944h4.48v-7.644c0-4.368-2.184-6.776-5.796-6.776-3.024 0-4.788 1.988-5.348 4.508h-1.12l.84-2.52V7.35h-4.48v14.14h4.48v-5.236c0-3.976 1.596-5.264 4.032-5.264zm20.72 10.78l11.676-.28v-3.92l-9.604.28V1.75h-4.48v17.668c0 1.54.868 2.38 2.408 2.352zm13.356-4.144c0 1.456.756 4.144 5.152 4.144 3.948 0 5.32-1.988 5.852-4.34h1.12l-.7 1.68v.28c0 1.344.756 2.1 2.1 2.1h3.108v-3.92h-2.044v-3.976c0-4.648-3.416-6.524-7.308-6.524-3.948 0-7 2.1-7 5.684h4.2c0-1.288 1.008-2.044 2.8-2.044 1.932 0 2.828.7 2.828 1.848l-4.452.616c-4.2.588-5.656 2.016-5.656 4.452zm4.48-.84c0-.812.672-1.008 2.016-1.204l3.612-.504c0 1.736-1.624 2.772-4.088 2.772-.756 0-1.54-.252-1.54-1.064zm13.826 4.704h4.48v-.868l-.84-2.52h1.12c.728 1.876 2.072 3.668 5.572 3.668 4.088 0 6.132-3.36 6.132-7.364s-2.044-7.336-6.132-7.336c-3.5 0-4.844 1.792-5.572 3.668h-1.12l.84-2.52V.91h-4.48v20.58zm4.48-7.084c0-2.38 1.344-3.416 3.752-3.416 2.408 0 3.752 1.036 3.752 3.416s-1.344 3.444-3.752 3.444c-2.408 0-3.752-1.064-3.752-3.444z" fill="#fff"/></svg>
